app/dist/common/images/bioxxmed-ag.svg

<svg height="18" viewBox="0 0 18 18" width="18" xmlns="http://www.w3.org/2000/svg"><path d="m0 0h18v18h-18z" fill="#f0f3fa"/><path d="m14 9.44c0-1-.32-1.44-.91-1.44-.72 0-1.09.46-1.09 1.52v2.48h-1v-2.56c0-1-.33-1.44-1.05-1.44-.55 0-.95.46-.95 1.52v2.48h-1v-5h1v.58c.1-.24.53-.58 1.1-.58.71 0 1.31.36 1.6 1.1.25-.72.87-1.1 1.54-1.1 1 0 1.76.7 1.76 2.1v2.9h-1z" fill="#3a5582"/><path d="m5.45 7c-.36 0-.71.12-1.03.3v.98c.26-.2.57-.28.89-.28.84 0 1.29.71 1.29 1.46 0 1.05-.62 1.54-1.3 1.54-.54 0-1.3-.38-1.3-1.54v-4.02c0-.2-.3-.44-.49-.44s-.51.24-.51.44v6.56h1v-.8c.28.54.62.8 1.46.8 1.23 0 2.18-1.03 2.18-2.54-0-1.52-.94-2.46-2.2-2.46z" fill="#009ec7"/></svg>

<!-- by TradingView --><svg width="18" height="18" viewBox="0 0 18 18" xmlns="http://www.w3.org/2000/svg"><path fill="#F0F3FA" d="M0 0h18v18H0z"/><path d="M14 9.44c0-1-.32-1.44-.91-1.44-.72 0-1.09.46-1.09 1.52V12h-1V9.44c0-1-.33-1.44-1.05-1.44C9.4 8 9 8.46 9 9.52V12H8V7h1v.58c.1-.24.53-.58 1.1-.58.71 0 1.31.36 1.6 1.1.25-.72.87-1.1 1.54-1.1 1 0 1.76.7 1.76 2.1V12h-1V9.44Z" fill="#3A5582"/><path d="M5.45 7c-.36 0-.71.12-1.03.3v.98c.26-.2.57-.28.89-.28.84 0 1.29.71 1.29 1.46 0 1.05-.62 1.54-1.3 1.54-.54 0-1.3-.38-1.3-1.54V5.44c0-.2-.3-.44-.49-.44S3 5.24 3 5.44V12h1v-.8c.28.54.62.8 1.46.8 1.23 0 2.18-1.03 2.18-2.54C7.64 7.94 6.7 7 5.44 7Z" fill="#009EC7"/></svg>
